X:7
T:Birks of Invermay, The
R:Strathspey
S:Rogart
O:Scotland
M:4/4
K:G
B>c |\
d3e d>B A>G | A>G A>B E3G |\
D>E D>B, D2G>D | B,2D>E D2 G>B |\
d2ef/g/ dG | c>B AG E2B>A |\
G>E D>B, D2 G>A | B2A>G G2||\
D>C |\
B,3D E>D E<G | A>G A<B E2e2 |\
d>ed>B c>B A<G | c>d c>B A2 d>c |\
B>d e>f g3e | d>B A>G E2 B>A |\
G>E D>B, D2 G>A | B2A>G G2 ||**
